localPackages/DesignSystem/Sources/DesignSystem/Resources/Assets.xcassets/IconSet/ic-printer.imageset/ic-printer.svg

<svg width="24" height="24" viewBox="0 0 24 24" fill="none" xmlns="http://www.w3.org/2000/svg">
<g id="ic-printer">
<path id="Icon" fill-rule="evenodd" clip-rule="evenodd" d="M6.75 3.74104C6.75 3.32713 7.08579 2.99159 7.5 2.99159H13.705C13.881 2.99159 14.0515 3.05347 14.1864 3.1664L17.0496 5.56187C17.2198 5.70427 17.3182 5.91469 17.3182 6.13651V6.91247H6.75V3.74104ZM5.25 6.91247V3.74104C5.25 2.49931 6.25736 1.49268 7.5 1.49268H13.705C14.2331 1.49268 14.7444 1.67833 15.1494 2.01712L18.0126 4.41259C18.5232 4.83978 18.8182 5.47105 18.8182 6.13651V6.91247H19.8C21.2912 6.91247 22.5 8.12042 22.5 9.61051V16.8368C22.5 18.3269 21.2912 19.5349 19.8 19.5349H18.75V21.7438C18.75 22.5716 18.0784 23.2427 17.25 23.2427L6.75 23.2427C5.92157 23.2427 5.25 22.5716 5.25 21.7438V19.5349H4.2C2.70883 19.5349 1.5 18.3269 1.5 16.8368V9.61051C1.5 8.12042 2.70883 6.91247 4.2 6.91247H5.25ZM19.8 18.0359H18.75V15.0776V14.3281H18L6 14.3281H5.25V15.0776L5.25 18.0359H4.2C3.53726 18.0359 3 17.4991 3 16.8368V9.61051C3 8.94825 3.53726 8.41138 4.2 8.41138H19.8C20.4627 8.41138 21 8.94825 21 9.61051V16.8368C21 17.4991 20.4627 18.0359 19.8 18.0359ZM6.75 21.7438L17.25 21.7438V15.827L6.75 15.827L6.75 21.7438ZM18.75 11.3698C18.75 11.7793 18.4142 12.1113 18 12.1113C17.5858 12.1113 17.25 11.7793 17.25 11.3698C17.25 10.9602 17.5858 10.6282 18 10.6282C18.4142 10.6282 18.75 10.9602 18.75 11.3698ZM15 12.1113C15.4142 12.1113 15.75 11.7793 15.75 11.3698C15.75 10.9602 15.4142 10.6282 15 10.6282C14.5858 10.6282 14.25 10.9602 14.25 11.3698C14.25 11.7793 14.5858 12.1113 15 12.1113Z" fill="#0F0F0F"/>
</g>
</svg>

<svg xmlns="http://www.w3.org/2000/svg" width="24" height="24" viewBox="0 0 24 24">
  <g class="ic-printer">
    <path fill-rule="evenodd" d="M6.75 3.74a.75.75 0 0 1 .75-.749h6.205a.75.75 0 0 1 .481.175L17.05 5.56a.75.75 0 0 1 .268.575v.776H6.75v-3.17Zm-1.5 3.172V3.741A2.25 2.25 0 0 1 7.5 1.492h6.205c.528 0 1.04.186 1.444.525l2.864 2.395a2.25 2.25 0 0 1 .805 1.724v.776h.982a2.7 2.7 0 0 1 2.7 2.698v7.226a2.699 2.699 0 0 1-2.7 2.698h-1.05v2.21a1.5 1.5 0 0 1-1.5 1.498H6.75a1.5 1.5 0 0 1-1.5-1.499v-2.209H4.2a2.7 2.7 0 0 1-2.7-2.698V9.61a2.699 2.699 0 0 1 2.7-2.698h1.05ZM19.8 18.035h-1.05v-3.708H5.25v3.708H4.2A1.2 1.2 0 0 1 3 16.836V9.61a1.2 1.2 0 0 1 1.2-1.2h15.6a1.2 1.2 0 0 1 1.2 1.2v7.226a1.2 1.2 0 0 1-1.2 1.2ZM6.75 21.743h10.5v-5.916H6.75v5.916Zm12-10.374c0 .41-.336.742-.75.742a.746.746 0 0 1-.75-.742c0-.41.336-.741.75-.741s.75.332.75.741Zm-3.75.742c.414 0 .75-.332.75-.742a.746.746 0 0 0-.75-.741.746.746 0 0 0-.75.741c0 .41.336.742.75.742Z" class="Icon"/>
  </g>
</svg>
